Papirus/64x64/apps/com.github.linuxhubit.shouldidoit.svg

<?xml version="1.0" encoding="UTF-8" standalone="no"?>
<svg
   id="_图层_1"
   version="1.1"
   viewBox="0 0 64 64" width="64" height="64"
   sodipodi:docname="com.github.linuxhubit.shouldidoit.svg"
   xml:space="preserve"
   inkscape:version="1.4 (e7c3feb100, 2024-10-09)"
   xmlns:inkscape="http://www.inkscape.org/namespaces/inkscape"
   xmlns:sodipodi="http://sodipodi.sourceforge.net/DTD/sodipodi-0.dtd"
   xmlns="http://www.w3.org/2000/svg"
   xmlns:svg="http://www.w3.org/2000/svg"><sodipodi:namedview
     id="namedview26"
     pagecolor="#505050"
     bordercolor="#eeeeee"
     borderopacity="1"
     inkscape:showpageshadow="0"
     inkscape:pageopacity="0"
     inkscape:pagecheckerboard="0"
     inkscape:deskcolor="#505050"
     inkscape:zoom="10.6875"
     inkscape:cx="32"
     inkscape:cy="34.152047"
     inkscape:window-width="1920"
     inkscape:window-height="939"
     inkscape:window-x="0"
     inkscape:window-y="34"
     inkscape:window-maximized="1"
     inkscape:current-layer="_图层_1" /><!-- Generator: Adobe Illustrator 29.0.1, SVG Export Plug-In . SVG Version: 2.1.0 Build 192)  --><defs
     id="defs6"><style
       id="style1">
      .st0 {
        fill-opacity: .5;
      }

      .st0, .st1, .st2, .st3, .st4, .st5, .st6, .st7 {
        fill: #fff;
      }

      .st8 {
        fill: #133c9a;
      }

      .st2, .st9 {
        display: none;
      }

      .st3 {
        fill-opacity: .2;
      }

      .st4 {
        fill-opacity: .9;
      }

      .st10 {
        fill: #3370ff;
      }

      .st11 {
        fill: url(#_未命名的渐变_3);
      }

      .st12 {
        fill: url(#_未命名的渐变);
      }

      .st5 {
        fill-opacity: .3;
      }

      .st6 {
        fill-opacity: 0;
      }

      .st7 {
        fill-opacity: .7;
      }

      .st13 {
        fill: #00d6b9;
      }

      .st14 {
        fill: url(#_未命名的渐变_2);
      }
    </style><radialGradient
       id="_未命名的渐变"
       data-name="未命名的渐变"
       cx="123.9"
       cy="-40.2"
       fx="123.9"
       fy="-40.2"
       r="59.4"
       gradientTransform="translate(-26.8 25.5) scale(.6 -.7)"
       gradientUnits="userSpaceOnUse"><stop
         offset="0"
         stop-color="#db202e"
         id="stop1" /><stop
         offset="1"
         stop-color="#e01b24"
         id="stop2" /></radialGradient><radialGradient
       id="_未命名的渐变_2"
       data-name="未命名的渐变 2"
       cx="67.6"
       cy="26.8"
       fx="67.6"
       fy="26.8"
       r="105.2"
       gradientTransform="translate(-26.6 25.3) scale(.6 -.7)"
       gradientUnits="userSpaceOnUse"><stop
         offset="0"
         stop-color="#ffb648"
         id="stop3" /><stop
         offset="1"
         stop-color="#ff7800"
         stop-opacity="0"
         id="stop4" /></radialGradient><radialGradient
       id="_未命名的渐变_3"
       data-name="未命名的渐变 3"
       cx="61.7"
       cy="18.6"
       fx="61.7"
       fy="18.6"
       r="68"
       gradientTransform="matrix(0.6,0,0,-0.7,-26.8,25.8)"
       gradientUnits="userSpaceOnUse"><stop
         offset="0"
         stop-color="#c64600"
         id="stop5" /><stop
         offset="1"
         stop-color="#a51d2d"
         id="stop6" /></radialGradient></defs><path
     class="st1"
     d="M47.5,64.1H13.8c-7.6,0-13.8-6.3-13.8-13.8V13.7C0,6.2,6.2,0,13.7,0h36.6c7.5,0,13.7,6.2,13.7,13.7v36.6c0,7.5-6.2,13.7-13.7,13.7h-2.9.1Z"
     id="path6"
     style="fill:#ffbf49;fill-opacity:1" /><g
     id="g49"
     transform="matrix(1.1420217,0,0,1.1477378,-4.4979115,-4.6582026)"><path
       style="opacity:0.2"
       d="m 36.949219,19 c -0.9375,0 -1.2518,0.584327 -1.53125,1.394531 -0.4372,1.260805 -1.038462,2.463326 -1.648438,3.65625 l -3.3125,3 C 29.922177,27.605359 28.885814,28.07401 28.160156,28.367188 27.374396,28.684914 27,29.52082 27,30.5 V 40.730469 C 27,41.984051 28.055289,43 29.359375,43 H 40.4375 c 0.967546,0 1.934495,-0.134479 2.855469,-0.421875 0.408652,-0.12708 0.780651,-0.275744 0.980469,-0.4375 0.59946,-0.382716 0.996093,-1.036034 0.996093,-1.78125 0,-0.361056 -0.09406,-0.702492 -0.257812,-1 0.63852,-0.44482 1.058593,-1.164487 1.058593,-1.980469 0,-0.518476 -0.170061,-0.998819 -0.457031,-1.394531 0.611478,-0.446264 1.007813,-1.154899 1.007813,-1.949219 0,-0.532916 -0.179979,-1.026751 -0.480469,-1.429687 C 46.667969,32.157761 47,31.504212 47,30.773438 47,29.42454 45.854269,27.64068 44.457031,27.507812 43.576623,27.422593 41.515625,27.214844 41.515625,27.214844 L 37,26.945312 38.664062,23.523438 c 0.15924,-0.785655 0.232574,-1.588069 0.1875,-2.386719 C 38.783949,19.880249 38.456129,19 36.949219,19 Z M 19.75,27 C 18.783442,27 18,27.895364 18,29 v 12 c 0,1.104636 0.783442,2 1.75,2 h 3.5 C 24.215193,43 25,42.104636 25,41 V 29 c 0,-1.104636 -0.784807,-2 -1.75,-2 z"
       id="path2" /><path
       style="fill:#ffffff"
       d="m 36.949219,18 c -0.9375,0 -1.2518,0.584327 -1.53125,1.394531 -0.4372,1.260805 -1.038462,2.463326 -1.648438,3.65625 l -3.3125,3 C 29.922177,26.605359 28.885814,27.07401 28.160156,27.367188 27.374396,27.684914 27,28.52082 27,29.5 V 39.730469 C 27,40.984051 28.055289,42 29.359375,42 H 40.4375 c 0.967546,0 1.934495,-0.134479 2.855469,-0.421875 0.408652,-0.12708 0.780651,-0.275744 0.980469,-0.4375 0.59946,-0.382716 0.996093,-1.036034 0.996093,-1.78125 0,-0.361056 -0.09406,-0.702492 -0.257812,-1 0.63852,-0.44482 1.058593,-1.164487 1.058593,-1.980469 0,-0.518476 -0.170061,-0.998819 -0.457031,-1.394531 0.611478,-0.446264 1.007813,-1.154899 1.007813,-1.949219 0,-0.532916 -0.179979,-1.026751 -0.480469,-1.429687 C 46.667969,31.157761 47,30.504212 47,29.773438 47,28.42454 45.854269,26.64068 44.457031,26.507812 43.576623,26.422593 41.515625,26.214844 41.515625,26.214844 L 37,25.945312 38.664062,22.523438 c 0.15924,-0.785655 0.232574,-1.588069 0.1875,-2.386719 C 38.783949,18.880249 38.456129,18 36.949219,18 Z M 19.75,26 C 18.783442,26 18,26.895364 18,28 v 12 c 0,1.104636 0.783442,2 1.75,2 h 3.5 C 24.215193,42 25,41.104636 25,40 V 28 c 0,-1.104636 -0.784807,-2 -1.75,-2 z"
       id="path3-5" /></g></svg>

<svg xmlns="http://www.w3.org/2000/svg" width="64" height="64" version="1.1">
 <rect style="opacity:0.2" width="56" height="56" x="4" y="5" rx="2.8" ry="2.8"/>
 <rect style="fill:#ffbf49" width="56" height="56" x="4" y="4" rx="2.8" ry="2.8"/>
 <path style="opacity:0.2" d="m 36.949219,19 c -0.9375,0 -1.2518,0.584327 -1.53125,1.394531 -0.4372,1.260805 -1.038462,2.463326 -1.648438,3.65625 l -3.3125,3 C 29.922177,27.605359 28.885814,28.07401 28.160156,28.367188 27.374396,28.684914 27,29.52082 27,30.5 V 40.730469 C 27,41.984051 28.055289,43 29.359375,43 H 40.4375 c 0.967546,0 1.934495,-0.134479 2.855469,-0.421875 0.408652,-0.12708 0.780651,-0.275744 0.980469,-0.4375 0.59946,-0.382716 0.996093,-1.036034 0.996093,-1.78125 0,-0.361056 -0.09406,-0.702492 -0.257812,-1 0.63852,-0.44482 1.058593,-1.164487 1.058593,-1.980469 0,-0.518476 -0.170061,-0.998819 -0.457031,-1.394531 0.611478,-0.446264 1.007813,-1.154899 1.007813,-1.949219 0,-0.532916 -0.179979,-1.026751 -0.480469,-1.429687 C 46.667969,32.157761 47,31.504212 47,30.773438 47,29.42454 45.854269,27.64068 44.457031,27.507812 43.576623,27.422593 41.515625,27.214844 41.515625,27.214844 L 37,26.945312 38.664062,23.523438 c 0.15924,-0.785655 0.232574,-1.588069 0.1875,-2.386719 C 38.783949,19.880249 38.456129,19 36.949219,19 Z M 19.75,27 C 18.783442,27 18,27.895364 18,29 v 12 c 0,1.104636 0.783442,2 1.75,2 h 3.5 C 24.215193,43 25,42.104636 25,41 V 29 c 0,-1.104636 -0.784807,-2 -1.75,-2 z"/>
 <path style="fill:#ffffff" d="M 36.949219 18 C 36.011719 18 35.697419 18.584327 35.417969 19.394531 C 34.980769 20.655336 34.379507 21.857857 33.769531 23.050781 L 30.457031 26.050781 C 29.922177 26.605359 28.885814 27.07401 28.160156 27.367188 C 27.374396 27.684914 27 28.52082 27 29.5 L 27 39.730469 C 27 40.984051 28.055289 42 29.359375 42 L 40.4375 42 C 41.405046 42 42.371995 41.865521 43.292969 41.578125 C 43.701621 41.451045 44.07362 41.302381 44.273438 41.140625 C 44.872898 40.757909 45.269531 40.104591 45.269531 39.359375 C 45.269531 38.998319 45.175473 38.656883 45.011719 38.359375 C 45.650239 37.914555 46.070312 37.194888 46.070312 36.378906 C 46.070312 35.86043 45.900251 35.380087 45.613281 34.984375 C 46.224759 34.538111 46.621094 33.829476 46.621094 33.035156 C 46.621094 32.50224 46.441115 32.008405 46.140625 31.605469 C 46.667969 31.157761 47 30.504212 47 29.773438 C 47 28.42454 45.854269 26.64068 44.457031 26.507812 C 43.576623 26.422593 41.515625 26.214844 41.515625 26.214844 L 37 25.945312 L 38.664062 22.523438 C 38.823302 21.737783 38.896636 20.935369 38.851562 20.136719 C 38.783949 18.880249 38.456129 18 36.949219 18 z M 19.75 26 C 18.783442 26 18 26.895364 18 28 L 18 40 C 18 41.104636 18.783442 42 19.75 42 L 23.25 42 C 24.215193 42 25 41.104636 25 40 L 25 28 C 25 26.895364 24.215193 26 23.25 26 L 19.75 26 z"/>
 <path style="opacity:0.2;fill:#ffffff" d="M 6.8007812 4 C 5.2495812 4 4 5.2495812 4 6.8007812 L 4 7.8007812 C 4 6.2495813 5.2495812 5 6.8007812 5 L 57.199219 5 C 58.750419 5 60 6.2495812 60 7.8007812 L 60 6.8007812 C 60 5.2495813 58.750419 4 57.199219 4 L 6.8007812 4 z"/>
</svg>
